X: 114
T:DEROBEE TOURNIQUET
M:6/8
L:1/8
Q:1/4=60
Z:Yves BELOTTEAU
K:G
|:BBB BAB|cBA dzd|BBB BAB|cBA G3:|!
|:dz2 AzB|cBA B2G|dz2 AzB|cBA G3:|
W:
W: From "Falaleiro" http://home.t-online.de/home/pheld/homepage.htm
